build/img/delivery__03.svg

<svg width="140" height="140" viewBox="0 0 140 140" fill="none" xmlns="http://www.w3.org/2000/svg">
<g clip-path="url(#clip0)">
<path opacity="0.05" fill-rule="evenodd" clip-rule="evenodd" d="M136.965 58.8082C138.155 71.1593 126.138 80.542 120.038 91.6072C112.375 105.508 112.038 125.175 96.6952 131.853C81.3978 138.512 64.0799 128.073 48.1086 122.915C32.5767 117.898 12.8502 115.864 5.43417 102.379C-1.9648 88.9253 9.19046 73.4974 12.8529 58.8082C15.5777 47.8797 16.9352 36.7582 24.0655 27.6529C31.2252 18.51 41.0164 11.1017 52.7637 7.84222C64.3613 4.62425 76.8794 5.80221 88.1552 9.86996C98.9533 13.7654 106.265 22.1157 114.097 29.9682C123.064 38.9588 135.795 46.6706 136.965 58.8082Z" fill="#0B9EC7"/>
<path opacity="0.05" fill-rule="evenodd" clip-rule="evenodd" d="M139.603 70.8999C137.468 85.1676 120.77 92.6159 111.257 104.073C102.056 115.154 98.7484 131.261 84.8401 136.854C70.5889 142.584 53.0047 140.02 39.5027 132.926C27.0987 126.408 23.641 112.238 16.4366 100.913C10.1341 91.0059 0.726757 82.3529 0.0439727 70.8999C-0.657977 59.1254 7.19635 49.0561 12.71 38.4035C19.7072 24.8847 20.6923 4.09235 36.5142 0.438048C52.6421 -3.28694 62.815 17.8156 78.359 23.2408C92.6063 28.2135 110.664 21.3299 122.288 30.3755C134.653 39.9972 141.809 56.1657 139.603 70.8999Z" fill="#0B9EC7"/>
<path d="M77.0898 77.0898H100.809V84.5664H77.0898V77.0898Z" fill="#007AAD"/>
<path d="M77.0898 99.9062H96.9414V101.066C96.9414 102.134 97.8071 103 98.875 103C99.9429 103 100.809 102.134 100.809 101.066V88.4336H77.0898V99.9062Z" fill="#007AAD"/>
<path d="M77.0898 65.7461H100.809V73.2227H77.0898V65.7461Z" fill="#007AAD"/>
<path d="M100.938 37H39.0625C37.9946 37 37.1289 37.8657 37.1289 38.9336C37.1289 40.0015 37.9946 40.8672 39.0625 40.8672H100.938C102.005 40.8672 102.871 40.0015 102.871 38.9336C102.871 37.8657 102.005 37 100.938 37Z" fill="#0B9EC7"/>
<path d="M57.4961 99.9062H73.2227V44.7344H57.4961V99.9062ZM62.9156 68.0719C63.9805 68.0719 64.8438 68.9352 64.8438 70C64.8438 71.0649 63.9805 71.9281 62.9156 71.9281C61.8507 71.9281 60.9874 71.0648 60.9874 70C60.9875 68.9351 61.8508 68.0719 62.9156 68.0719Z" fill="#0B9EC7"/>
<path d="M77.0898 44.7344H100.809V61.8789H77.0898V44.7344Z" fill="#007AAD"/>
<path d="M39.1914 101.066C39.1914 102.134 40.0571 103 41.125 103C42.1929 103 43.0586 102.134 43.0586 101.066V99.9062H53.6289V44.7344H39.1914V101.066ZM48.3438 68.0719C49.4086 68.0719 50.2719 68.9352 50.2719 70C50.2719 71.0649 49.4086 71.9281 48.3438 71.9281C47.2789 71.9281 46.4156 71.0649 46.4156 70C46.4156 68.9351 47.2789 68.0719 48.3438 68.0719Z" fill="#0B9EC7"/>
</g>
<defs>
<clipPath id="clip0">
<rect width="140" height="140" fill="white" transform="translate(140) rotate(90)"/>
</clipPath>
</defs>
</svg>

<svg width="140" height="140" fill="none" xmlns="http://www.w3.org/2000/svg"><g clip-path="url(#clip0)"><path opacity=".05" fill-rule="evenodd" clip-rule="evenodd" d="M136.965 58.808c1.19 12.351-10.827 21.734-16.927 32.8-7.663 13.9-8 33.567-23.343 40.245-15.297 6.659-32.615-3.78-48.586-8.938-15.532-5.017-35.259-7.051-42.675-20.536-7.399-13.454 3.756-28.882 7.419-43.57 2.725-10.93 4.082-22.05 11.213-31.156 7.16-9.143 16.95-16.551 28.698-19.81C64.36 4.623 76.879 5.802 88.155 9.87c10.798 3.895 18.11 12.246 25.942 20.098 8.967 8.99 21.698 16.703 22.868 28.84z" fill="#0B9EC7"/><path opacity=".05" fill-rule="evenodd" clip-rule="evenodd" d="M139.603 70.9c-2.135 14.268-18.833 21.716-28.346 33.173-9.201 11.081-12.509 27.188-26.417 32.781-14.251 5.73-31.835 3.166-45.337-3.928-12.404-6.518-15.862-20.688-23.066-32.013C10.134 91.006.727 82.353.044 70.9-.658 59.125 7.196 49.056 12.71 38.403 19.707 24.886 20.692 4.093 36.514.438 52.642-3.287 62.815 17.816 78.36 23.241c14.247 4.973 32.305-1.911 43.929 7.134 12.365 9.622 19.521 25.79 17.315 40.525z" fill="#0B9EC7"/><path d="M77.09 77.09h23.719v7.476h-23.72V77.09zm0 22.816h19.85v1.16a1.934 1.934 0 103.868 0V88.434h-23.72v11.472zm0-34.16h23.719v7.477h-23.72v-7.477z" fill="#007AAD"/><path d="M100.938 37H39.062a1.934 1.934 0 100 3.867h61.876a1.934 1.934 0 000-3.867zM57.496 99.906h15.727V44.734H57.496v55.172zm5.42-31.834a1.928 1.928 0 110 3.856 1.928 1.928 0 010-3.856z" fill="#0B9EC7"/><path d="M77.09 44.734h23.719V61.88h-23.72V44.734z" fill="#007AAD"/><path d="M39.191 101.066a1.934 1.934 0 103.868 0v-1.16h10.57V44.734H39.19v56.332zm9.153-32.994a1.928 1.928 0 110 3.856 1.928 1.928 0 010-3.856z" fill="#0B9EC7"/></g><defs><clipPath id="clip0"><path fill="#fff" transform="rotate(90 70 70)" d="M0 0h140v140H0z"/></clipPath></defs></svg>
